packages/icons/src/components/Icon/assets/default-solid/delete.svg

<svg width="20" height="20" viewBox="0 0 20 20" fill="none" xmlns="http://www.w3.org/2000/svg">
<path fill-rule="evenodd" clip-rule="evenodd" d="M8.88894 2C7.53891 2 6.4445 3.09442 6.4445 4.44444V4.83795C5.73758 4.90642 5.03652 4.99508 4.3419 5.10337C3.97811 5.16009 3.72917 5.50098 3.78588 5.86477C3.8426 6.22857 4.18349 6.47751 4.54729 6.42079L4.67876 6.40055L5.42676 15.7505C5.52839 17.0209 6.58898 18 7.86342 18H12.1365C13.4109 18 14.4715 17.0209 14.5732 15.7505L15.3212 6.40049L15.453 6.42079C15.8168 6.47751 16.1577 6.22857 16.2144 5.86477C16.2711 5.50098 16.0222 5.16009 15.6584 5.10337C14.9637 4.99507 14.2626 4.9064 13.5556 4.83793V4.44444C13.5556 3.09442 12.4612 2 11.1112 2H8.88894ZM10.0001 4.66667C10.7462 4.66667 11.4872 4.6891 12.2223 4.73332V4.44444C12.2223 3.83079 11.7248 3.33333 11.1112 3.33333H8.88894C8.27529 3.33333 7.77783 3.83079 7.77783 4.44444V4.73333C8.513 4.6891 9.25399 4.66667 10.0001 4.66667ZM8.73737 7.97335C8.72265 7.60546 8.41248 7.31915 8.04459 7.33387C7.67669 7.34858 7.39038 7.65875 7.4051 8.02665L7.67178 14.6933C7.6865 15.0612 7.99666 15.3475 8.36456 15.3328C8.73245 15.3181 9.01876 15.0079 9.00405 14.64L8.73737 7.97335ZM12.5952 8.02665C12.6099 7.65875 12.3236 7.34858 11.9557 7.33387C11.5878 7.31915 11.2776 7.60546 11.2629 7.97335L10.9962 14.64C10.9815 15.0079 11.2678 15.3181 11.6357 15.3328C12.0036 15.3475 12.3138 15.0612 12.3285 14.6933L12.5952 8.02665Z" fill="#727683"/>
</svg>

<svg xmlns="http://www.w3.org/2000/svg" width="20" height="20" fill="none" viewBox="0 0 20 20">
    <path fill="#727683" fill-rule="evenodd" d="M8.889 2a2.444 2.444 0 0 0-2.444 2.444v.394a37 37 0 0 0-2.103.265.667.667 0 0 0 .205 1.318l.132-.02.748 9.35A2.444 2.444 0 0 0 7.863 18h4.273c1.275 0 2.336-.98 2.437-2.25l.748-9.35.132.02a.667.667 0 1 0 .205-1.317 37 37 0 0 0-2.102-.265v-.394A2.444 2.444 0 0 0 11.11 2zM10 4.667q1.12 0 2.222.066v-.289a1.11 1.11 0 0 0-1.11-1.11H8.888a1.11 1.11 0 0 0-1.111 1.11v.29A37 37 0 0 1 10 4.666M8.737 7.973a.667.667 0 0 0-1.332.054l.267 6.666a.667.667 0 0 0 1.332-.053zm3.858.054a.667.667 0 0 0-1.332-.054l-.267 6.667a.667.667 0 0 0 1.332.053z" clip-rule="evenodd"/>
</svg>
